X: 0481
V: 1 nm="VIOLINO PRIMO"
V: 2 nm="SECONDO"
V: 3 nm="BASSO" clef=bass middle=d
M: 2/4
L: 1/16
K: D
V: 1
P: 1
zdcB |\
e6 dc | cdBc A2BA | ^GAFG EGBd | caec A2Bc |\
df^ga cega | Bd^ef Ac^d"^(\=)"e | "^(#)"GB^de E"^(#)"GcB | "_D.C."A4 |]
[K:G]\
g2fg b2ag | fgb2 d4 | e2cB A2e2 | defg d2f2 |\
g2fg b2ag | fgbg e4 | d2fg b3a | "_D.C."g4 |]
V: 2
z4 |\
z2[E2C2] z2[E2C2] | z2[F2D2] z2[F2D2] | z2[E2C2] z2[E2C2] | z2[F2D2] z2[F2D2] |\
z2[G2A,2] z2[E2C2] | z2[F2D2] z2[F2D2] | z2[G2A,2] z2[E2C2] | D2[G2A,2] [F2A,2]z2 H|]
c6 BA | A2^G2A2C2 | E2A,2^G,2[E2D2] | [E2C2][E2C2][E2C2][E2C2] |\
[K:G]
V: 3
z4 |\
c2z2 A2z2 | d2z2 A2z2 | c2z2 z2A2 | d2A2d2z2 H|]
f2d2e2c2 | d2B2c2A2 | e2^g2b2e2 | "_D.C."a2A2 |]
[K:G]
g4 g4 | g4 g4 | f4 d4 | g4 G4 |\
g4 g4 | g2B2 ^c4 | d4 d2d2 | G4 |]
V: 1
M: 2/4
L: 1/16
K: D
K: A
P: 2
[|\
c2f2e2^d2 | e2ac' e2c2 | e2fe B2cB | A2GF EGBd |\
c2f2e2^e2 | fb d'4 c'a | c'aec ^de=dB | (B4 A2) H|]
|: c>d |\
e>^d=d>c B>AG>F | E>GA>B c>Bc>d | e>^de>^e f>ef>g | a>ga>f e>dc>d |\
e>^d=d>c B>AG>F | E>Ac>e a2g>f | e>ec>A B>^Bc>=B | (B3c/B/ A2) :|
V: 2
M: 2/4
L: 1/16
K: D
K: A
[|\
|: A>B |\
c>^B=B>A G>FE>D | C>EF>G A>GA>B | c>^Bc>c d>cd>B | c>Bc>d c>BA>B |\
c>^B=B>A G>FE>D | C2E>A c2e>d | c>AE>C D>^DE>=D | (D3E/D/ C2) :|
V: 3
M: 2/4
L: 1/16
K: D
K: A
[|\
a8 | a2a2a2A2 | c2c2 d2^d2 | f2B2 e2E2 |\
|: a2 |\
e2e2e2e2 | a2e2 c2A2 | a2A2 d2e2 | a2a2 A2A2 |\
e2e2e2e2 | a2e2 c2A2 | e2e2 E2E2 | A2a2A2 :|
V: 1
M: 6/8
L: 1/8
K: D
P: 3
dcd | e2B efe | dfa gab | ag/f/e/d/ cdf |^d2e aba |\
e'2a aba | g2e efe | a2e efe | d3 H|]
f2f |\
a2g g2f | f2e e2d | d2c Bdc | A3 g2g |\
b2a a2g | g2f f2f | ^efa d'c'e | f3- f2f |
ged cBA | dfb a3 | egb a3 | b/a/^g/a/b/c'/ d'2f |\
ged cBA | dfb a3 | fbd' c'(c'/d'/)(b/c'/) | "_D.C."a3 |]
V: 2
M: 6/8
L: 1/8
K: D
[cG][cG][cG] [cG][cG][cG] | [cG][cG][cG] [cG][cG][cG] | [cG][cG][cG] [AG][AG][AG] | [A3F3] H|]
d2d |\
f2e e2d | d2c c2B | B2A ^GFE | C3 e2e |\
g2f f2e | e2d d2c | cAc ^E^GB | A3- A2A |
EGF EDC | [A3F3] FGA | E3 EFG | [A2G2][AG] [A2F2]D |\
EGF EDC | [A3F3] dAF | Bdf e(e/f/)(d/e/) | "_D.C."[c3E3] |]
V: 3
M: 6/8
L: 1/8
K: D
d3 |\
ccc ccc | ddd ccc | ddd ddd | aaa aaa |\
aaa aaa | aaa aaa | aaa aaa | d3 H|]
d3 |\
c3 d3 | a3 f3 | e3 e3 | A3 A3 |\
d3 c3 | d3 f3 | c3 c3 | f3- f2d |
c3 A3 | d3 def | c3 cde | A2A d2d |\
c3 A3 | d3 fdA | d3 e2e | "_D.C."A3 |]
V: 1
M: 2/4
L: 1/16
K: A
P: 4
[|\
e2{g}a2c2{^d}e2 | A2AB c2A2 | e2dc B2f2 | e2c2A2z2 |\
{^d}e2{g}a2{^B}c2{d}e2 | A2AB c2A2 | e2dc B2cB | A2A2A2z2 H|]
c4 A2c2 | f4 e4 | c4 A2c2 | f4 e4 |\
(e2G2)(G2e2) | (e2G2)(G2e2) | =f6 e2 | E4 z4 |
c4 A2c2 | f4 e4 | c4 A2c2 | f4 e4 |\
(e2G2)(G2e2) | (e2G2)(G2e2) | =f6 e2 | A4 "_D.C."z4 |]
V: 2
M: 2/4
L: 1/16
K: A
[|\
z2[E2C2] z2[E2C2] | z2[E2C2] z2[E2C2] | z2[E2D2] z2[E2D2] | z2[E2C2] z2[E2C2] |\
z2[E2C2] z2[E2C2] | z2[E2C2] z2[E2C2] | z2[E2C2] z2[E2C2] | z2[E2C2] z2[E2C2] |\
z2[D2B,2] z2[D2B,2] | z2[D2B,2] z2[D2B,2] | z2[D2G,2] z2[D2G,2] | z2[D2G,2] z2[D2G,2] |
z2[E2C2] z2[E2C2] | z2[E2C2] z2[E2C2] | z2[E2C2] z2[E2C2] | z2[E2C2] z2[E2C2] |\
z2[D2B,2] z2[D2B,2] | z2[D2B,2] z2[D2B,2] | z2[D2G,2] z2[D2G,2] | [E4C4] "_D.C."z4 |]
V: 3
M: 2/4
L: 1/16
K: A
[|\
e2z2 e2z2 | e2z2 e2z2 | e2z2 e2z2 | e2z2 e2z2 |
e2z2 e2z2 | e2z2 e2z2 | e2z2 e2z2 | A4 "_D.C."z4 |]
V: 1
M: 6/8
L: 1/8
K: D
P: 5
[|\
d2A d2f | d2A d2f | eAc ece | ged cBA |\
d2A d2f | d2A d2f | eBe gBc | d3- d2 H|]
[K:G] d |\
g3- gfe | d2B e2d | d2A e2d | cAB G2d |\
g3- gfg | A2A e2e | dcB AcB | G3- "_D.C."G2 |]
[K:A]A | A2c e2c | dcd f^ga | fec A2c | cB^G EFG |\
V: 2
M: 6/8
L: 1/8
K: D
[|\
[FA,][FA,][FA,] [FA,][FA,][FA,] | [FA,][FA,][FA,] [FA,][FA,][FA,] |\
[GA,][GA,][GA,] [GA,][GA,][GA,] | [GA,][GA,][GA,] [GA,][GA,][GA,] |\
[FA,][FA,][FA,] [FA,][FA,][FA,] | [FA,][FA,][FA,] [FA,][FA,][FA,] |\
[GB,][GB,][GB,] [GA,][GA,][GA,] | [F3-A,3-] [F2A,2] H|]
[K:G] z |\
[K:A]z |\
V: 3
M: 6/8
L: 1/8
K: D
[|\
d2z d2z | d2z d2z | A2z a2z | A2z a2z |\
[K:G] z |\
g2z g2z | g2z g2z | f2z f2z | d2z g2z |\
g2z G2z | c2z c2z | d2z d2z | g3- "_D.C."g2 |]
[K:A]z |\
a2e c2A | dcB ^ABd | e2z e2z | A3 "_D.C."A2 |]





